svgs/thin/file-audio.svg

<svg xmlns="http://www.w3.org/2000/svg" viewBox="0 0 384 512"><!--! Font Awesome Pro 6.0.0-alpha3 by @fontawesome - https://fontawesome.com License - https://fontawesome.com/license (Commercial License) --><path d="M374.6 150.6l-141.3-141.3c-6-6.004-14.14-9.375-22.62-9.375L64-.0001c-35.35 0-64 28.65-64 64l.0065 384c0 35.34 28.65 64 64 64H320c35.35 0 64-28.66 64-64V173.3C384 164.8 380.6 156.6 374.6 150.6zM224 22.63l137.4 137.4H248c-13.22 0-24-10.77-24-24V22.63zM368 447.1c0 26.47-21.53 48-48 48H64c-26.47 0-48-21.53-48-48v-384c0-26.47 21.53-48 48-48h144v119.1c0 22.06 17.94 40 40 40h120V447.1zM179.7 249.5C172 246.3 163.7 248.1 157.8 254L124.6 288.1H100c-11.03 0-20 8.938-20 19.97v56c0 11.03 8.969 20.03 20 20.03h24.62l33.27 34.22c3.859 3.781 8.953 5.781 14.12 5.781c2.609 0 5.25-.5 7.75-1.562C187.3 419.3 192 412.2 192 404v-136C192 259.9 187.2 252.6 179.7 249.5zM176 404c0 2.312-1.516 3.359-2.406 3.734c-.7656 .3438-2.75 .8438-4.359-.75l-37.86-38.94H100c-2.203 0-4-1.781-4-4v-56c0-2.219 1.797-4 4-4h31.38l37.78-38.84C170.9 263.5 172.8 263.1 173.5 264.3C174.3 264.6 176 265.5 176 268V404zM258.4 405.7c1.578 1.906 3.859 2.875 6.156 2.875c1.812 0 3.609-.5938 5.109-1.844c22.45-18.62 34.81-43.78 34.81-70.78s-12.36-52.16-34.81-70.78c-3.391-2.812-8.406-2.344-11.27 1.031c-2.828 3.406-2.359 8.469 1.047 11.28c18.72 15.53 29.03 36.31 29.03 58.47s-10.31 42.94-29.03 58.47C256 397.3 255.6 402.3 258.4 405.7zM227.4 302.1c-3.438 2.781-3.953 7.812-1.156 11.25c5.453 6.688 8.344 14.53 8.344 22.62s-2.891 15.94-8.344 22.62c-2.797 3.438-2.281 8.469 1.156 11.25c1.484 1.219 3.266 1.812 5.047 1.812c2.312 0 4.625-1 6.203-2.938c7.812-9.594 11.94-20.91 11.94-32.75s-4.125-23.16-11.94-32.75C235.9 299.8 230.8 299.3 227.4 302.1z"/></svg>

<svg xmlns="http://www.w3.org/2000/svg" viewBox="0 0 384 512"><!-- Font Awesome Pro 6.0.0-alpha2 by @fontawesome - https://fontawesome.com License - https://fontawesome.com/license (Commercial License) --><path d="M374.629 150.625L233.371 9.375C227.371 3.371 219.23 0 210.746 0H64C28.652 0 0 28.652 0 64V448C0 483.343 28.652 512 64 512H320C355.348 512 384 483.343 384 448V173.254C384 164.765 380.629 156.629 374.629 150.625ZM224 22.629L361.375 160H248C234.781 160 224 149.234 224 136V22.629ZM368 448C368 474.469 346.469 496 320 496H64C37.531 496 16 474.469 16 448V64C16 37.531 37.531 16 64 16H208V136C208 158.062 225.938 176 248 176H368V448ZM179.656 249.531C172.031 246.343 163.672 248.062 157.766 254L124.625 288.062H100C88.969 288.062 80 297.031 80 308.062V364.062C80 375.094 88.969 384.062 100 384.062H124.625L157.891 418.281C161.75 422.062 166.844 424.062 172.016 424.062C174.625 424.062 177.266 423.562 179.766 422.5C187.312 419.344 192 412.281 192 404.062V268.062C192 259.906 187.156 252.625 179.656 249.531ZM176 404.062C176 406.375 174.484 407.375 173.594 407.75C172.828 408.094 170.844 408.594 169.234 407L131.375 368.062H100C97.797 368.062 96 366.281 96 364.062V308.062C96 305.844 97.797 304.062 100 304.062H131.375L169.156 265.219C170.938 263.469 172.828 263.969 173.531 264.312C174.281 264.625 176 265.594 176 268.062V404.062ZM258.391 405.75C259.969 407.656 262.25 408.625 264.547 408.625C266.359 408.625 268.156 408.031 269.656 406.781C292.109 388.156 304.469 363 304.469 336S292.109 283.844 269.656 265.219C266.266 262.406 261.25 262.875 258.391 266.25C255.562 269.656 256.031 274.719 259.437 277.531C278.156 293.062 288.469 313.844 288.469 336S278.156 378.937 259.437 394.469C256.031 397.281 255.562 402.344 258.391 405.75ZM227.422 302.125C223.984 304.906 223.469 309.937 226.266 313.375C231.719 320.062 234.609 327.906 234.609 336S231.719 351.937 226.266 358.625C223.469 362.062 223.984 367.094 227.422 369.875C228.906 371.094 230.688 371.687 232.469 371.687C234.781 371.687 237.094 370.687 238.672 368.75C246.484 359.156 250.609 347.844 250.609 336S246.484 312.844 238.672 303.25C235.875 299.844 230.844 299.312 227.422 302.125Z"/></svg>
